X: 20314
T: John Brennan's Dream
R: reel
M: 4/4
K: Bminor
|:FB B2 f3 g|fedf edBA|FB B2 FBdf|edBA B3A|
FB B2 f3 g|fedf edBA|FB B2 FBdf|1 edBA B3A:|2 edBA B2 BA||
|:Bffe f3 g|fedf edBA|Bffe f3g|e2 de fa a2|
bffe f3g|fedf edBA|FB B2 FBdf|1 edBA B2fa:|2 edBA B3||

